X: 1128
T: Protexisti pro festo – Kyrie
C: Anonim
L: 1/4
M: C|
N: Derived from pl-kk--kk-i-69--002_anonim--protexisti-pro-festo-kyrie.krn
V: 1 clef=tenor
V: 2 clef=tenor
V: 3 clef=bass
K: C
[V:1] G3G | 
[V:2] E3E | 
[V:3] C,E,G,E, | 
[V:1] G4 | 
[V:2] E4 | 
[V:3] C,4 | 
[V:1] G4 | 
[V:2] E2C2 | 
[V:3] C,E,G,C | 
[V:1] F2E2 | 
[V:2] D2C2 | 
[V:3] B,G,C2 | 
[V:1] !fermata!D4 ||  
[V:2] !fermata!B,4 ||  
[V:3] !fermata!G,4 ||  
[V:1] G2F2 | 
[V:2] E2D2 | 
[V:3] C2G,2 | 
[V:1] E2G2 | 
[V:2] C2E2 | 
[V:3] E,2C,2 | 
[V:1] FEFD | 
[V:2] DCDB, | 
[V:3] G,4 | 
[V:1] E2GE | 
[V:2] G,2EC | 
[V:3] C,2C,E, | 
[V:1] D2EF | 
[V:2] B,2CD | 
[V:3] G,4 | 
[V:1] E2FG | 
[V:2] C2DE | 
[V:3] C2G,E, | 
[V:1] F2E2 | 
[V:2] D2C2 | 
[V:3] F,2^F,2 | 
[V:1] D2FD | 
[V:2] B,2DB, | 
[V:3] G,2G,G, | 
[V:1] EDEF | 
[V:2] CB,CD | 
[V:3] CG,E,D, | 
[V:1] GFGA | 
[V:2] EDEF | 
[V:3] C,B,,C,D, | 
[V:1] GFED | 
[V:2] EDCB, | 
[V:3] C,D,E,F, | 
[V:1] EDCD | 
[V:2] G,4 | 
[V:3] G,F,E,F, | 
[V:1] E2D2 | 
[V:2] C2B,2 | 
[V:3] G,2G,,2 | 
[V:1] E4 ||  
[V:2] C4 ||  
[V:3] C,4 ||  
[V:1] [M:3/2]C2G,2E2 | 
[V:2] [M:3/2]G,2C2G,2 | 
[V:3] [M:3/2]C,2E,2C,2 | 
[V:1] E2D2C2 | 
[V:2] C2B,2G,2 | 
[V:3] G,2F,2E,2 | 
[V:1] E2E2G2 | 
[V:2] C2C2E2 | 
[V:3] C,2E,G,C2 | 
[V:1] G2F2E2 | 
[V:2] E2D2C2 | 
[V:3] C2G,2C,2 | 
[V:1] G2AGFE | 
[V:2] E2FEDC | 
[V:3] C,2F,2F,^F, | 
[V:1] E2D2zF | 
[V:2] C2B,2zD | 
[V:3] G,2G,,2zG, | 
[V:1] F2E2G2 | 
[V:2] D2C2E2 | 
[V:3] B,2C2C,2 | 
[V:1] G2F2E2 | 
[V:2] E2D2C2 | 
[V:3] C,2D,2E,2 | 
[V:1] D2E2F2 | 
[V:2] B,2C2D2 | 
[V:3] G,6 | 
[V:1] E2F2G2 | 
[V:2] C2B,2C2 | 
[V:3] C,2D,2E,2 | 
[V:1] AFE2D2 | 
[V:2] FDC2B,2 | 
[V:3] F,2G,2G,,2 | 
[V:1] E2z2E2 | 
[V:2] C2z2C2 | 
[V:3] C,2z2C,2 | 
[V:1] G6 | 
[V:2] B,2C2D2 | 
[V:3] D,2E,2F,2 | 
[V:1] G2F2E2 | 
[V:2] C2D2C2 | 
[V:3] E,2D,2C,2 | 
[V:1] AFE2D2 | 
[V:2] FDC2B,2 | 
[V:3] F,2G,2G,,2 | 
[V:1] E6 ||  
[V:2] G,6 ||  
[V:3] C,6 ||  
[V:1] [M:C|]G2E2 | 
[V:2] [M:C|]E2C2 | 
[V:3] [M:C|]C,2E,2 | 
[V:1] D3E | 
[V:2] B,3C | 
[V:3] G,3C | 
[V:1] FEDF | 
[V:2] DCB,D | 
[V:3] B,2G,2 | 
[V:1] E2GE | 
[V:2] C2EC | 
[V:3] C2C,E, | 
[V:1] D2ED | 
[V:2] B,2CB, | 
[V:3] G,2G,2 | 
[V:1] C^FAC | 
[V:2] A,2CA, | 
[V:3] ^F,2D,2 | 
[V:1] B,2DE | 
[V:2] G,2B,C | 
[V:3] G,2G,G, | 
[V:1] =F2DF | 
[V:2] D2B,D | 
[V:3] G,2G,2 | 
[V:1] EGFE | 
[V:2] CEDC | 
[V:3] C,2F,^F, | 
[V:1] D2FD | 
[V:2] B,2DB, | 
[V:3] G,2G,2 | 
[V:1] EFGA/F/ | 
[V:2] G,3C | 
[V:3] C,D,E,F, | 
[V:1] E2D2 | 
[V:2] C2B,2 | 
[V:3] G,2G,,2 | 
[V:1] E2DE | 
[V:2] C2B,C | 
[V:3] C,2G,G, | 
[V:1] F2DF | 
[V:2] D2B,D | 
[V:3] G,A,B,G, | 
[V:1] EFGE | 
[V:2] G,4 | 
[V:3] C,D,E,C, | 
[V:1] D2DF | 
[V:2] B,2B,D | 
[V:3] G,2G,F, | 
[V:1] E2F2 | 
[V:2] C2D2 | 
[V:3] E,2B,,2 | 
[V:1] G2AF | 
[V:2] E2FD | 
[V:3] C,2F,2 | 
[V:1] E2D2 | 
[V:2] C2B,2 | 
[V:3] G,2G,,2 | 
[V:1] E2E2 | 
[V:2] G,2G,2 | 
[V:3] C,2C,2 | 
[V:1] F4 | 
[V:2] C2D2 | 
[V:3] F,2G,2 | 
[V:1] E4 |]  
[V:2] G,4 |]  
[V:3] C,4 |]  

